X:403
T:Scotland
C:Bill Monroe - Arr. Andriano Sofo
N:Transcribed by Kim Davis and Mike Stangeland
R:bluegrass
L:1/8
Q:1/4=220
M:4/4
K:A
z6 [AA][AB] |: "A"[A2c2] [AA]"(A part)"[Ac] [A2d2] [Ac][Ad] | [e2A2] [Ac][AA] (3[AB]c[AB] [AA][AB] | 
[A2c2] [AA][Ac] [A2d2] [Ac][Ad] |1 [eA]"E"[Ac] [AB][Ac] "A"[A2A2] [AA][AB] :|4 [eA]"E"[Ac] [AB][Ac] "A"[A3A3][eA] | 
|: "A"[a2A2] "(B part 1)"[aA][bA] [aA][fA] [eA][fA] | [=gA][fA] [eA]d cB [e2A2] | 
[a2A2] [aA][bA] [a2A2] [eA][fA] | "E"[=gA][fA] [eA]c "A"[e4A4] | [a2A2] [aA][bA] [a2A2] [eA][fA] | 
[=gA][fA] [eA]d cB [eA]B | "A"Bc [eA]c "D"d2 cd |1 [eA]"E"c Bc "A"[e3A3][eA] :|2 [eA]"E"c Bc [e4A4] | 
|: "A"[D=G,][EA,] z2 [e4A4] | z2 de [e=c]^c [e2A2] | [D=G,][EA,] zC [E2A,2] =gf | 
|1 e"E"d =c^c "A"[e4A4] :|2 e"E"d =c^c "A"[e2A2] [AA][AB] | [a2A2] [aA]"(B Part 2)"[bA] [aA][fA] [eA][fA] | 
[=gA][fA] [eA]d cB [e2A2] | [a2A2] [aA][bA] [a2A2] [eA][fA] | "E"[=gA][fA] [eA]"A"c [e4A4] | 
e=g ab ag ef | [=gA][fA] [eA]d cB [eA]B | (3"A"cBA Bc "D"dB cd | "E"[eA]c Bc "A"[e4A4] | 
"A"[a3A3][bA] [a2A2] [eA][fA] | [=gA][fA] [eA][ed] [ec]e [e2A2] | [eA]g [aA][bA] [aA][fA] [eA][fA] | 
"E"[=gA][fA] [eA]"A"[ec] (3cec [e2e2] | eg ab af ef | [=gA][fA] [eA]d cB [eA]B | 
"A"Bc [eA]c "D"d2 cd | "E"[eA]c Bc "A"[e4A4] | "A"[D=G,][EA,] z2 [e4A4] | z2 de [e=c]^c [e2A2] | 
[D=G,][EA,] zC [E2A,2] =gf | "E"ed =c^c "A"[e4A4] | [D=G,][EA,] z2 [e4A4] | z2 de [e=c]^c [e2A2] | 
"A"ae (3=gag "D"ed =cA | "E"=c^c A=G "A"E^D =D=C | (3"A"cec [eA]"(D part ending)"e (3cec [eA][fA] | 
[=gA][bA] [gA][fA] [eA][ed] [ec][eB] | (3cec [eA]e Aa =gf | "E"ed cB "A"[e2A2] [eA]e | 
(3cec [eA]e (3cec [eA][fA] | [=gA][bA] [gA][fA] [eA][ed] [ec][eB] | ce (3cec Aa =gf | 
"E"ed cB "A"[e2A2] [eA]e | (3cec [eA]e (3cec [eA][fA] | [=gA][bA] [gA][fA] [eA][ed] [ec][eB] | 
(3cec [eA]e Aa =gf | "E"ed cB "A"[e2A2] [eA]e | (3cec [eA]e (3cec [eA][fA] | [=gA][bA] [gA][fA] [eA][ed] [ec][eB] | 
ce ce [aA]=g fe | ed =c^c z4 | 



